X:1
T: Mistwold
C:
R:Reel
Q: 232
K:A
M:4/4
L:1/8
E2|A2 B2 c2 d2|e4 c2 e2|d4 B2 d2|c2 BA B2 E2|A2 B2 c2 d2|e4 c2 e2|d2 B2 A2 G2|A6 E2|
A2 B2 c2 d2|e4 c2 e2|d4 B2 d2|c2 BA B2 E2|A2 B2 c2 d2|e4 c2 e2|d2 B2 A2 G2|A3B c2 d2|
e4 c2 e2|d4 B2 d2|c4 A2 c2|B2 G2 E4|F4 G4|A4 B2 d2|c4 B4|A3B c2 d2|
e4 c2 e2|d4 B2 d2|c4 A2 c2|B2 G2 E4|F4 G4|A4 B2 d2|c4 B4|A6||
